X:1
T:Title
L:1/8
M:4/4
K:Db
V:1 treble nm="Grand Piano"
V:1
 z4[Q:1/4=100] FG F2 | B4 AGGF | F4 D2 E2 | F2 FE EDDC | B,4 FG F2 | B4 AGGF | F4 D2 E2 | %7
 F2 FE EDDC | B,4 D2 E2 | F2 F2 FEGF | E4 C2 D2 | E2 E2 A2 GA | F4 F2 F2 | B2 BA AGGF | %14
 GF E2 =A2 B2 | c4 cBdc | B4 z4 |] %17

